flaticon/business/coin-8.svg

<svg xmlns="http://www.w3.org/2000/svg" width="32" height="32" viewBox="0 0 24 24">
    <path d="M 13.242188 0 C 12.820312 0 12.402344 0.03125 11.988281 0.0859375 C 11.566406 0.03125 11.152344 0 10.757812 0 C 7.929688 0 5.273438 1.253906 3.277344 3.535156 C 3.191406 3.636719 3.105469 3.742188 3.019531 3.84375 C 3.019531 3.847656 3.015625 3.847656 3.015625 3.851562 C 1.914062 5.203125 1.109375 6.796875 0.652344 8.527344 C 0.652344 8.527344 0.652344 8.53125 0.652344 8.53125 C 0.359375 9.640625 0.207031 10.808594 0.207031 12 C 0.207031 13.820312 0.566406 15.550781 1.210938 17.097656 C 1.214844 17.113281 1.21875 17.132812 1.230469 17.148438 C 1.613281 18.0625 2.097656 18.914062 2.664062 19.6875 C 2.679688 19.707031 2.691406 19.730469 2.710938 19.746094 C 3.285156 20.519531 3.945312 21.207031 4.671875 21.792969 C 4.691406 21.816406 4.71875 21.832031 4.742188 21.851562 C 6.449219 23.203125 8.523438 24 10.757812 24 C 11.15625 24 11.570312 23.96875 11.992188 23.914062 C 12.402344 23.96875 12.820312 24 13.242188 24 C 19.058594 24 23.792969 18.617188 23.792969 12 C 23.792969 5.382812 19.058594 0 13.242188 0 Z M 4.699219 19.035156 L 3.214844 19.035156 C 2.851562 18.519531 2.527344 17.964844 2.246094 17.378906 L 3.8125 17.378906 C 3.878906 17.527344 3.945312 17.671875 4.015625 17.8125 C 4.046875 17.875 4.078125 17.9375 4.109375 17.996094 C 4.191406 18.164062 4.28125 18.328125 4.371094 18.488281 C 4.40625 18.546875 4.4375 18.609375 4.472656 18.667969 C 4.546875 18.792969 4.625 18.914062 4.699219 19.035156 Z M 2.046875 7.035156 L 3.632812 7.035156 C 3.46875 7.4375 3.328125 7.851562 3.207031 8.277344 L 1.585938 8.277344 C 1.71875 7.851562 1.871094 7.4375 2.046875 7.035156 Z M 3.511719 4.550781 L 4.96875 4.550781 C 4.601562 5.074219 4.277344 5.628906 3.996094 6.207031 L 2.441406 6.207031 C 2.75 5.621094 3.109375 5.070312 3.511719 4.550781 Z M 1.035156 12 C 1.035156 11.722656 1.046875 11.445312 1.0625 11.171875 L 2.714844 11.171875 C 2.714844 11.175781 2.714844 11.179688 2.714844 11.183594 C 2.699219 11.453125 2.691406 11.726562 2.691406 12 C 2.691406 12.136719 2.695312 12.277344 2.699219 12.414062 L 1.050781 12.414062 C 1.046875 12.277344 1.035156 12.140625 1.035156 12 Z M 2.746094 13.242188 C 2.761719 13.414062 2.78125 13.589844 2.804688 13.761719 C 2.804688 13.773438 2.808594 13.785156 2.808594 13.796875 C 2.839844 14.027344 2.875 14.257812 2.917969 14.484375 L 1.285156 14.484375 C 1.207031 14.078125 1.140625 13.664062 1.101562 13.242188 Z M 2.996094 9.101562 C 2.980469 9.179688 2.96875 9.261719 2.953125 9.339844 C 2.953125 9.339844 2.949219 9.339844 2.949219 9.339844 C 2.886719 9.671875 2.832031 10.007812 2.789062 10.34375 L 1.140625 10.34375 C 1.195312 9.925781 1.269531 9.511719 1.363281 9.101562 Z M 3.101562 15.308594 C 3.113281 15.359375 3.125 15.414062 3.140625 15.460938 C 3.144531 15.480469 3.148438 15.5 3.152344 15.519531 C 3.222656 15.769531 3.296875 16.015625 3.378906 16.261719 C 3.398438 16.3125 3.414062 16.363281 3.433594 16.414062 C 3.449219 16.460938 3.464844 16.507812 3.480469 16.550781 L 1.886719 16.550781 C 1.730469 16.148438 1.59375 15.734375 1.480469 15.308594 Z M 7.886719 1.65625 L 7.085938 1.65625 C 7.699219 1.367188 8.335938 1.148438 8.996094 1.011719 C 8.613281 1.199219 8.246094 1.414062 7.886719 1.65625 Z M 5.664062 2.484375 L 6.816406 2.484375 C 6.449219 2.804688 6.09375 3.15625 5.761719 3.535156 C 5.707031 3.597656 5.65625 3.660156 5.605469 3.722656 L 4.238281 3.722656 C 4.683594 3.257812 5.160156 2.839844 5.664062 2.484375 Z M 3.859375 19.863281 L 5.277344 19.863281 C 5.324219 19.921875 5.371094 19.984375 5.417969 20.046875 C 5.542969 20.203125 5.671875 20.355469 5.804688 20.503906 C 5.878906 20.589844 5.957031 20.667969 6.03125 20.75 C 6.113281 20.835938 6.191406 20.917969 6.273438 21 C 6.308594 21.035156 6.339844 21.070312 6.375 21.101562 L 5.128906 21.101562 C 4.675781 20.730469 4.25 20.316406 3.859375 19.863281 Z M 9 22.988281 C 8.050781 22.789062 7.15625 22.421875 6.324219 21.929688 L 7.324219 21.929688 C 7.378906 21.972656 7.433594 22.007812 7.484375 22.050781 C 7.570312 22.113281 7.65625 22.179688 7.746094 22.238281 C 7.90625 22.351562 8.074219 22.460938 8.242188 22.5625 C 8.316406 22.609375 8.390625 22.652344 8.46875 22.695312 C 8.601562 22.773438 8.734375 22.847656 8.867188 22.917969 C 8.914062 22.941406 8.957031 22.96875 9 22.988281 Z M 13.242188 23.171875 C 12.914062 23.171875 12.589844 23.152344 12.269531 23.117188 L 12.101562 23.09375 C 12.082031 23.089844 12.0625 23.085938 12.042969 23.085938 C 11.898438 23.0625 11.757812 23.039062 11.613281 23.011719 C 11.601562 23.011719 11.59375 23.007812 11.582031 23.007812 C 11.445312 22.980469 11.308594 22.949219 11.171875 22.914062 C 11.152344 22.910156 11.132812 22.90625 11.113281 22.898438 C 10.988281 22.867188 10.863281 22.832031 10.738281 22.796875 C 10.699219 22.785156 10.664062 22.769531 10.628906 22.757812 C 10.523438 22.726562 10.414062 22.691406 10.308594 22.652344 C 10.226562 22.621094 10.144531 22.589844 10.0625 22.558594 C 10.003906 22.535156 9.945312 22.511719 9.890625 22.488281 C 7.664062 21.546875 5.816406 19.695312 4.695312 17.328125 C 4.6875 17.3125 4.679688 17.292969 4.671875 17.273438 C 4.609375 17.140625 4.546875 17.007812 4.492188 16.871094 C 4.46875 16.824219 4.449219 16.769531 4.429688 16.722656 C 4.386719 16.617188 4.34375 16.511719 4.304688 16.402344 C 4.28125 16.335938 4.257812 16.273438 4.234375 16.207031 C 4.199219 16.113281 4.167969 16.019531 4.136719 15.921875 C 4.113281 15.847656 4.089844 15.773438 4.066406 15.699219 C 4.039062 15.609375 4.011719 15.519531 3.988281 15.429688 C 3.964844 15.351562 3.945312 15.269531 3.921875 15.1875 C 3.898438 15.101562 3.878906 15.011719 3.855469 14.925781 C 3.835938 14.839844 3.816406 14.757812 3.800781 14.675781 C 3.78125 14.585938 3.761719 14.496094 3.746094 14.40625 C 3.730469 14.324219 3.714844 14.238281 3.699219 14.15625 C 3.683594 14.0625 3.671875 13.96875 3.65625 13.875 C 3.644531 13.792969 3.632812 13.710938 3.621094 13.628906 C 3.609375 13.527344 3.597656 13.425781 3.585938 13.328125 C 3.578125 13.25 3.570312 13.171875 3.5625 13.09375 C 3.554688 12.976562 3.546875 12.863281 3.539062 12.746094 C 3.535156 12.679688 3.53125 12.617188 3.527344 12.550781 C 3.523438 12.367188 3.515625 12.183594 3.515625 12 C 3.515625 11.820312 3.519531 11.640625 3.527344 11.460938 C 3.53125 11.371094 3.539062 11.28125 3.546875 11.191406 C 3.550781 11.105469 3.554688 11.019531 3.5625 10.933594 C 3.570312 10.808594 3.585938 10.679688 3.601562 10.554688 C 3.605469 10.511719 3.609375 10.464844 3.613281 10.421875 C 3.632812 10.269531 3.65625 10.121094 3.679688 9.96875 C 3.679688 9.953125 3.683594 9.9375 3.6875 9.921875 C 4.011719 7.9375 4.796875 6.128906 5.917969 4.65625 C 5.9375 4.628906 5.957031 4.601562 5.980469 4.574219 C 6.046875 4.488281 6.113281 4.40625 6.183594 4.320312 C 6.222656 4.273438 6.261719 4.226562 6.304688 4.175781 C 6.363281 4.105469 6.429688 4.035156 6.492188 3.964844 C 6.539062 3.910156 6.585938 3.859375 6.632812 3.808594 C 6.695312 3.742188 6.761719 3.671875 6.828125 3.605469 C 6.875 3.5625 6.917969 3.519531 6.960938 3.476562 C 7.035156 3.402344 7.109375 3.332031 7.1875 3.261719 C 7.21875 3.230469 7.25 3.203125 7.28125 3.175781 C 7.371094 3.09375 7.464844 3.011719 7.558594 2.933594 C 7.5625 2.929688 7.566406 2.929688 7.570312 2.925781 C 8.859375 1.859375 10.386719 1.144531 12.058594 0.914062 L 12.292969 0.878906 C 12.605469 0.84375 12.921875 0.828125 13.242188 0.828125 C 18.601562 0.828125 22.964844 5.839844 22.964844 12 C 22.964844 18.160156 18.601562 23.171875 13.242188 23.171875 Z M 13.242188 23.171875"/>
    <path d="M13.242188 3.507812C13.492188 3.507812 13.746094 3.523438 13.992188 3.550781 14.007812 3.554688 14.027344 3.554688 14.042969 3.554688 14.25 3.554688 14.425781 3.398438 14.453125 3.1875 14.476562 2.960938 14.316406 2.753906 14.089844 2.730469 13.808594 2.695312 13.523438 2.679688 13.242188 2.679688L13.222656 2.679688C12.996094 2.679688 12.820312 2.863281 12.820312 3.09375 12.820312 3.320312 13.011719 3.507812 13.242188 3.507812zM20.332031 9.636719C20.378906 9.824219 20.546875 9.949219 20.730469 9.949219 20.765625 9.949219 20.800781 9.945312 20.832031 9.9375 21.054688 9.882812 21.191406 9.660156 21.132812 9.4375 21.066406 9.160156 20.984375 8.886719 20.890625 8.617188 20.816406 8.402344 20.582031 8.285156 20.367188 8.359375 20.148438 8.433594 20.035156 8.667969 20.109375 8.886719 20.191406 9.132812 20.269531 9.386719 20.332031 9.636719zM10.066406 4.277344C10.128906 4.277344 10.195312 4.261719 10.253906 4.230469 10.484375 4.113281 10.722656 4.007812 10.960938 3.921875 11.175781 3.839844 11.285156 3.601562 11.203125 3.386719 11.125 3.171875 10.886719 3.066406 10.671875 3.144531 10.402344 3.246094 10.136719 3.363281 9.878906 3.496094 9.675781 3.597656 9.59375 3.847656 9.699219 4.050781 9.769531 4.195312 9.914062 4.277344 10.066406 4.277344zM18.628906 17.800781C18.464844 18.003906 18.289062 18.199219 18.109375 18.382812 17.949219 18.542969 17.949219 18.804688 18.113281 18.96875 18.191406 19.046875 18.296875 19.085938 18.402344 19.085938 18.511719 19.085938 18.617188 19.046875 18.699219 18.964844 18.894531 18.761719 19.089844 18.546875 19.273438 18.324219 19.414062 18.144531 19.390625 17.886719 19.210938 17.742188 19.035156 17.597656 18.773438 17.625 18.628906 17.800781zM21.035156 11.574219C20.804688 11.574219 20.621094 11.769531 20.621094 12 20.621094 12.253906 20.609375 12.511719 20.589844 12.761719 20.574219 12.988281 20.746094 13.1875 20.972656 13.203125 20.984375 13.207031 20.996094 13.207031 21.003906 13.207031 21.21875 13.207031 21.398438 13.042969 21.417969 12.824219 21.4375 12.554688 21.449219 12.277344 21.449219 12L21.449219 11.972656C21.449219 11.746094 21.261719 11.574219 21.035156 11.574219zM17.320312 3.910156C17.078125 3.75 16.824219 3.605469 16.570312 3.476562 16.363281 3.375 16.117188 3.457031 16.015625 3.660156 15.910156 3.867188 15.992188 4.113281 16.195312 4.21875 16.425781 4.332031 16.652344 4.460938 16.867188 4.601562 16.9375 4.648438 17.015625 4.671875 17.09375 4.671875 17.226562 4.671875 17.359375 4.605469 17.441406 4.484375 17.566406 4.292969 17.511719 4.035156 17.320312 3.910156zM16.242188 19.761719C16.015625 19.878906 15.777344 19.984375 15.535156 20.074219 15.324219 20.152344 15.214844 20.390625 15.296875 20.605469 15.359375 20.773438 15.515625 20.875 15.683594 20.875 15.730469 20.875 15.78125 20.867188 15.828125 20.847656 16.097656 20.746094 16.363281 20.628906 16.621094 20.496094 16.824219 20.390625 16.90625 20.140625 16.800781 19.9375 16.695312 19.734375 16.445312 19.65625 16.242188 19.761719zM5.863281 12C5.863281 11.742188 5.871094 11.480469 5.890625 11.222656 5.910156 10.996094 5.738281 10.796875 5.511719 10.777344 5.289062 10.761719 5.085938 10.929688 5.066406 11.15625 5.046875 11.4375 5.035156 11.71875 5.035156 12L5.035156 12.007812C5.035156 12.238281 5.21875 12.417969 5.449219 12.417969 5.675781 12.417969 5.863281 12.226562 5.863281 12zM20.648438 14.804688C20.433594 14.734375 20.199219 14.851562 20.125 15.066406 20.042969 15.3125 19.945312 15.558594 19.84375 15.796875 19.75 16.007812 19.847656 16.25 20.054688 16.34375 20.109375 16.367188 20.167969 16.378906 20.222656 16.378906 20.382812 16.378906 20.535156 16.285156 20.601562 16.128906 20.714844 15.867188 20.816406 15.597656 20.910156 15.328125 20.980469 15.113281 20.867188 14.878906 20.648438 14.804688zM19.75 6.320312C19.589844 6.085938 19.417969 5.855469 19.234375 5.632812 19.089844 5.457031 18.832031 5.429688 18.652344 5.578125 18.476562 5.722656 18.453125 5.984375 18.597656 6.160156 18.761719 6.359375 18.917969 6.570312 19.066406 6.785156 19.144531 6.902344 19.273438 6.96875 19.40625 6.96875 19.488281 6.96875 19.566406 6.945312 19.640625 6.894531 19.828125 6.769531 19.878906 6.511719 19.75 6.320312zM13.242188 20.492188C12.984375 20.492188 12.726562 20.476562 12.472656 20.445312 12.238281 20.425781 12.039062 20.582031 12.011719 20.808594 11.984375 21.035156 12.148438 21.242188 12.375 21.269531 12.660156 21.304688 12.953125 21.320312 13.242188 21.320312L13.277344 21.320312C13.503906 21.320312 13.671875 21.136719 13.671875 20.90625 13.671875 20.679688 13.46875 20.492188 13.242188 20.492188zM6.144531 14.347656C6.089844 14.125 5.867188 13.988281 5.644531 14.042969 5.421875 14.097656 5.289062 14.324219 5.34375 14.546875 5.410156 14.820312 5.492188 15.097656 5.585938 15.367188 5.644531 15.539062 5.804688 15.644531 5.976562 15.644531 6.019531 15.644531 6.066406 15.640625 6.109375 15.625 6.328125 15.550781 6.441406 15.316406 6.367188 15.097656 6.285156 14.851562 6.210938 14.597656 6.144531 14.347656zM10.269531 19.777344C10.042969 19.660156 9.816406 19.527344 9.601562 19.386719 9.410156 19.261719 9.152344 19.316406 9.027344 19.507812 8.902344 19.699219 8.957031 19.953125 9.144531 20.078125 9.386719 20.238281 9.640625 20.382812 9.894531 20.511719 9.957031 20.542969 10.019531 20.558594 10.082031 20.558594 10.234375 20.558594 10.378906 20.476562 10.453125 20.332031 10.554688 20.128906 10.472656 19.878906 10.269531 19.777344zM6.433594 7.640625C6.222656 7.546875 5.980469 7.644531 5.890625 7.855469 5.777344 8.113281 5.671875 8.382812 5.578125 8.652344 5.507812 8.867188 5.621094 9.101562 5.839844 9.175781 5.882812 9.191406 5.925781 9.199219 5.972656 9.199219 6.144531 9.199219 6.304688 9.089844 6.363281 8.917969 6.449219 8.667969 6.542969 8.421875 6.648438 8.1875 6.738281 7.976562 6.644531 7.734375 6.433594 7.640625zM7.796875 5.023438C7.597656 5.226562 7.40625 5.441406 7.222656 5.664062 7.078125 5.839844 7.105469 6.101562 7.28125 6.246094 7.359375 6.308594 7.449219 6.339844 7.542969 6.339844 7.664062 6.339844 7.78125 6.285156 7.863281 6.1875 8.027344 5.984375 8.203125 5.789062 8.386719 5.605469 8.546875 5.445312 8.546875 5.183594 8.382812 5.023438 8.21875 4.859375 7.957031 4.859375 7.796875 5.023438zM7.40625 17.199219C7.277344 17.011719 7.023438 16.960938 6.832031 17.089844 6.644531 17.21875 6.59375 17.472656 6.722656 17.664062 6.882812 17.902344 7.054688 18.136719 7.234375 18.351562 7.316406 18.453125 7.433594 18.503906 7.554688 18.503906 7.644531 18.503906 7.738281 18.472656 7.816406 18.410156 7.992188 18.265625 8.019531 18.003906 7.875 17.828125 7.710938 17.628906 7.554688 17.417969 7.40625 17.199219zM16.585938 13.558594C16.335938 13.558594 16.175781 13.71875 16.175781 13.964844 16.175781 14.367188 16.054688 14.683594 15.804688 14.933594 15.558594 15.183594 15.261719 15.304688 14.90625 15.304688L11.824219 15.304688C12.132812 14.875 12.289062 14.292969 12.289062 13.5625L12.292969 11.550781 13.898438 11.550781C14.144531 11.550781 14.304688 11.390625 14.304688 11.144531 14.304688 10.894531 14.144531 10.734375 13.898438 10.734375L12.289062 10.734375 12.289062 8.859375C12.289062 8.230469 12.421875 7.753906 12.679688 7.441406 12.929688 7.132812 13.257812 6.984375 13.683594 6.984375 14.113281 6.984375 14.449219 7.113281 14.714844 7.378906 14.976562 7.644531 15.101562 7.996094 15.101562 8.457031 15.101562 8.703125 15.261719 8.863281 15.507812 8.863281 15.757812 8.863281 15.917969 8.703125 15.917969 8.457031 15.917969 7.785156 15.710938 7.230469 15.300781 6.808594 14.890625 6.382812 14.347656 6.167969 13.683594 6.167969 13.011719 6.167969 12.464844 6.410156 12.058594 6.886719 11.667969 7.351562 11.472656 8.015625 11.472656 8.859375L11.472656 10.734375 10.539062 10.734375C10.289062 10.734375 10.128906 10.894531 10.128906 11.144531 10.128906 11.390625 10.289062 11.550781 10.539062 11.550781L11.472656 11.554688 11.472656 13.5625C11.472656 14.144531 11.347656 14.589844 11.105469 14.878906 10.867188 15.164062 10.570312 15.304688 10.203125 15.304688 9.953125 15.304688 9.792969 15.464844 9.792969 15.710938 9.792969 15.960938 9.953125 16.121094 10.203125 16.121094L14.90625 16.121094C15.496094 16.121094 16 15.914062 16.398438 15.507812 16.792969 15.101562 16.992188 14.582031 16.992188 13.964844 16.992188 13.71875 16.832031 13.558594 16.585938 13.558594zM16.585938 13.558594"/>
</svg>

<svg xmlns="http://www.w3.org/2000/svg" width="32" height="32" viewBox="0 0 24 24">
    <path d="M13.242 0c-.422 0-.84.031-1.254.086A9.639 9.639 0 0 0 10.758 0C7.93 0 5.273 1.254 3.278 3.535c-.087.102-.173.207-.258.309 0 .004-.004.004-.004.008A12.401 12.401 0 0 0 .652 8.527v.004A13.598 13.598 0 0 0 .207 12c0 1.82.36 3.55 1.004 5.098.004.015.008.035.02.05.382.915.867 1.766 1.433 2.54.016.019.027.042.047.058.574.774 1.234 1.461 1.96 2.047.02.023.048.039.071.059C6.45 23.203 8.523 24 10.758 24a9.65 9.65 0 0 0 1.234-.086c.41.055.828.086 1.25.086 5.817 0 10.551-5.383 10.551-12S19.059 0 13.243 0zM4.7 19.035H3.215a11.563 11.563 0 0 1-.969-1.656h1.567a11.153 11.153 0 0 0 .296.617c.082.168.172.332.262.492.035.059.066.121.102.18.074.125.152.246.226.367zm-2.652-12h1.586c-.164.402-.305.817-.426 1.242H1.586c.133-.425.285-.84.46-1.242zm1.465-2.484h1.457a12.1 12.1 0 0 0-.973 1.656H2.441c.309-.586.668-1.137 1.07-1.656zM1.035 12c0-.277.012-.555.028-.828h1.652v.012a14.138 14.138 0 0 0-.016 1.23H1.051c-.004-.137-.016-.273-.016-.414zm1.711 1.242c.016.172.035.348.059.52 0 .011.004.023.004.035.03.23.066.46.109.687H1.285a12.85 12.85 0 0 1-.183-1.242zm.25-4.14c-.016.078-.027.16-.043.238H2.95c-.062.332-.117.668-.16 1.004H1.141c.054-.418.129-.832.222-1.242zm.106 6.207c.011.05.023.105.039.152l.011.059c.07.25.145.496.227.742.02.05.035.101.055.152.015.047.03.094.046.137H1.887a11.84 11.84 0 0 1-.407-1.242zM7.887 1.656h-.801a8.532 8.532 0 0 1 1.91-.644c-.383.187-.75.402-1.11.644zm-2.223.828h1.152c-.367.32-.722.672-1.054 1.051-.055.063-.106.125-.157.188H4.238a9.846 9.846 0 0 1 1.426-1.239zM3.86 19.864h1.418c.047.058.094.12.141.183.125.156.254.308.387.457.074.086.152.164.226.246.082.086.16.168.242.25.036.035.067.07.102.102H5.129a10.26 10.26 0 0 1-1.27-1.239zM9 22.987a8.807 8.807 0 0 1-2.676-1.058h1c.055.043.11.078.16.12.086.063.172.13.262.188a8.315 8.315 0 0 0 .723.457c.133.078.265.153.398.223.047.023.09.05.133.07zm4.242.184c-.328 0-.652-.02-.972-.055l-.168-.023a16.472 16.472 0 0 1-.488-.082c-.012 0-.02-.004-.032-.004a7.747 7.747 0 0 1-.41-.094c-.02-.004-.04-.008-.059-.016-.125-.03-.25-.066-.375-.101-.039-.012-.074-.027-.11-.04a5.11 5.11 0 0 1-.32-.105l-.245-.093-.172-.07c-2.227-.942-4.075-2.794-5.196-5.16l-.023-.056a7.419 7.419 0 0 1-.18-.402c-.023-.047-.043-.101-.062-.148a7.789 7.789 0 0 1-.125-.32l-.07-.196a6.105 6.105 0 0 1-.098-.285l-.07-.223a6.998 6.998 0 0 1-.079-.27c-.023-.077-.043-.16-.066-.242-.024-.085-.043-.175-.067-.261-.02-.086-.039-.168-.054-.25-.02-.09-.04-.18-.055-.27l-.047-.25c-.015-.094-.027-.187-.043-.281l-.035-.246-.035-.3-.023-.235-.024-.348-.012-.195c-.004-.184-.011-.367-.011-.551 0-.18.004-.36.011-.54.004-.089.012-.179.02-.269a6.225 6.225 0 0 1 .055-.637l.011-.132c.02-.152.043-.3.067-.453 0-.016.004-.031.007-.047.325-1.985 1.11-3.793 2.231-5.266.02-.027.039-.054.062-.082.067-.086.133-.168.204-.254l.12-.144c.06-.07.126-.14.188-.211.047-.055.094-.106.14-.156a9.401 9.401 0 0 1 .556-.547c.03-.032.062-.059.093-.086a8.2 8.2 0 0 1 .278-.242c.003-.004.007-.004.011-.008C8.86 1.859 10.387 1.145 12.06.914l.234-.035c.312-.035.629-.05.95-.05 5.359 0 9.722 5.01 9.722 11.171 0 6.16-4.363 11.172-9.723 11.172zm0 0"/>
    <path d="M13.242 3.508a6.84 6.84 0 0 1 .801.047.413.413 0 0 0 .047-.824 6.856 6.856 0 0 0-.848-.051h-.02a.404.404 0 0 0-.402.414c0 .226.192.414.422.414zm0 0M20.332 9.637a.412.412 0 0 0 .5.3.408.408 0 0 0 .3-.5 8.58 8.58 0 0 0-.241-.82.413.413 0 1 0-.782.27c.082.246.16.5.223.75zm0 0M10.066 4.277a.404.404 0 0 0 .188-.047 6.25 6.25 0 0 1 .707-.308.415.415 0 0 0-.29-.777c-.269.101-.534.218-.792.351a.41.41 0 0 0-.18.555c.07.144.215.226.367.226zm0 0M18.629 17.8a8.23 8.23 0 0 1-.52.583.414.414 0 1 0 .59.582c.196-.203.39-.418.574-.64a.415.415 0 0 0-.644-.524zm0 0M21.035 11.574a.422.422 0 0 0-.414.426c0 .254-.012.512-.031.762a.415.415 0 0 0 .383.441.097.097 0 0 0 .03.004.416.416 0 0 0 .415-.383c.02-.27.031-.547.031-.824v-.027a.404.404 0 0 0-.414-.399zm0 0M17.32 3.91a7.605 7.605 0 0 0-.75-.433.413.413 0 0 0-.554.183.414.414 0 0 0 .18.559c.23.113.456.242.671.383.07.046.149.07.227.07a.416.416 0 0 0 .227-.762zm0 0M16.242 19.762a6.364 6.364 0 0 1-.707.312.41.41 0 0 0-.238.531.41.41 0 0 0 .531.243c.27-.102.535-.22.793-.352a.414.414 0 0 0-.379-.734zm0 0M5.863 12c0-.258.008-.52.028-.777a.415.415 0 0 0-.38-.446.42.42 0 0 0-.445.38c-.02.28-.03.562-.03.843v.008c0 .23.183.41.413.41A.42.42 0 0 0 5.863 12zm0 0M20.648 14.805a.419.419 0 0 0-.523.261c-.082.246-.18.493-.281.73a.415.415 0 0 0 .379.583c.16 0 .312-.094.379-.25.113-.262.214-.531.308-.8a.415.415 0 0 0-.262-.524zm0 0M19.75 6.32a9.554 9.554 0 0 0-.516-.687.414.414 0 0 0-.637.527c.165.2.321.41.47.625a.41.41 0 0 0 .574.11.413.413 0 0 0 .109-.575zm0 0M13.242 20.492a6.31 6.31 0 0 1-.77-.047.417.417 0 0 0-.46.364.416.416 0 0 0 .363.46c.285.036.578.051.867.051h.035c.227 0 .395-.183.395-.414 0-.226-.203-.414-.43-.414zm0 0M6.145 14.348a.413.413 0 0 0-.5-.305.415.415 0 0 0-.301.504c.066.273.148.55.242.82a.41.41 0 0 0 .39.278.413.413 0 0 0 .39-.547c-.08-.246-.155-.5-.221-.75zm0 0M10.27 19.777a7.638 7.638 0 0 1-.668-.39.414.414 0 1 0-.457.691c.242.16.496.305.75.434a.415.415 0 0 0 .559-.18.415.415 0 0 0-.184-.555zm0 0M6.434 7.64a.408.408 0 0 0-.543.215c-.114.258-.22.528-.313.797a.415.415 0 0 0 .785.266c.086-.25.18-.496.285-.73a.417.417 0 0 0-.214-.547zm0 0M7.797 5.023c-.2.204-.39.418-.574.641a.415.415 0 0 0 .32.676.42.42 0 0 0 .32-.152 7.41 7.41 0 0 1 .524-.583.41.41 0 0 0-.004-.582.41.41 0 0 0-.586 0zm0 0M7.406 17.2a.414.414 0 0 0-.683.464c.16.238.332.473.511.688.082.101.2.152.32.152a.415.415 0 0 0 .32-.676 8.48 8.48 0 0 1-.468-.629zm0 0M16.586 13.559c-.25 0-.41.16-.41.406 0 .402-.121.719-.371.969-.246.25-.543.37-.899.37h-3.082c.309-.429.465-1.011.465-1.742l.004-2.011h1.605c.247 0 .407-.16.407-.406 0-.25-.16-.41-.407-.41H12.29V8.858c0-.629.133-1.105.39-1.418.25-.308.579-.457 1.005-.457.43 0 .765.13 1.03.395.263.266.388.617.388 1.078 0 .246.16.406.406.406.25 0 .41-.16.41-.406 0-.672-.207-1.227-.617-1.648-.41-.426-.953-.641-1.617-.641-.672 0-1.22.242-1.625.719-.391.465-.586 1.129-.586 1.972v1.875h-.934c-.25 0-.41.16-.41.41 0 .247.16.407.41.407l.934.004v2.008c0 .582-.125 1.027-.368 1.316a1.12 1.12 0 0 1-.902.426c-.25 0-.41.16-.41.406 0 .25.16.41.41.41h4.703c.59 0 1.094-.207 1.492-.613.395-.406.594-.926.594-1.543 0-.246-.16-.406-.406-.406zm0 0"/>
</svg>
